X:0820
T:Miss Bridges' Strathspey.
M:C|
L:1/8
Q:1/4=112
I: :: ||
Z:Jack Campin * www.campin.me.uk * 2009
K:D
 f    |d<FD>F ABAF  |d<FD>F E<ee>f |d<FD>F A>BA<F| G>BA>F          Ddd:|
(f/g/)|a<db>d a<df<a|gfe>d  ceef/g/|a<db>d a<df<d|(ef/g/) a/g/f/e/ fdd
 f/g/ |a<db<d a<df<a|gfed   ceed/c/|d<bc<a B<gA<F| G<BA>G          FDD|]

